local/share/icons/dracula-icons-main/symbolic/actions/notification-disabled-symbolic.svg

<?xml version="1.0" encoding="UTF-8"?>
<svg xmlns="http://www.w3.org/2000/svg" xmlns:xlink="http://www.w3.org/1999/xlink" width="16" height="16" viewBox="0 0 16 16">
<defs>
<filter id="filter-remove-color" x="0%" y="0%" width="100%" height="100%">
<feColorMatrix color-interpolation-filters="sRGB" values="0 0 0 0 1 0 0 0 0 1 0 0 0 0 1 0 0 0 1 0" />
</filter>
<mask id="mask-0">
<g filter="url(#filter-remove-color)">
<rect x="-1.6" y="-1.6" width="19.2" height="19.2" fill="rgb(0%, 0%, 0%)" fill-opacity="0.35"/>
</g>
</mask>
<clipPath id="clip-0">
<rect x="0" y="0" width="16" height="16"/>
</clipPath>
<g id="source-8822" clip-path="url(#clip-0)">
<path fill-rule="nonzero" fill="rgb(21.176471%, 21.176471%, 21.176471%)" fill-opacity="1" d="M 8 1 C 7.449219 1 7 1.449219 7 2 C 7 2.046875 7.003906 2.089844 7.007812 2.136719 C 5.277344 2.578125 4 4.128906 4 6 L 4 9.882812 L 5 8.882812 L 5 6 C 5 4.339844 6.339844 3 8 3 C 8.800781 3 9.523438 3.316406 10.058594 3.824219 L 10.757812 3.121094 C 10.269531 2.65625 9.667969 2.308594 8.988281 2.136719 C 8.996094 2.089844 9 2.046875 9 2 C 9 1.449219 8.550781 1 8 1 Z M 12 6.121094 L 11 7.121094 L 11 9 C 11 9.738281 11.277344 10.449219 11.769531 11 L 7.125 11 L 6.125 12 L 14 12 L 14 11 C 12.894531 11 12 10.105469 12 9 Z M 7 13 C 7 13.550781 7.449219 14 8 14 C 8.550781 14 9 13.550781 9 13 Z M 7 13 "/>
</g>
<mask id="mask-1">
<g filter="url(#filter-remove-color)">
<rect x="-1.6" y="-1.6" width="19.2" height="19.2" fill="rgb(0%, 0%, 0%)" fill-opacity="0.35"/>
</g>
</mask>
<clipPath id="clip-1">
<rect x="0" y="0" width="16" height="16"/>
</clipPath>
<g id="source-8826" clip-path="url(#clip-1)">
<path fill-rule="nonzero" fill="rgb(21.176471%, 21.176471%, 21.176471%)" fill-opacity="1" d="M 1.988281 13.304688 L 13.304688 1.988281 L 14.011719 2.695312 L 2.695312 14.011719 Z M 1.988281 13.304688 "/>
</g>
</defs>
<g mask="url(#mask-0)">
<use xlink:href="#source-8822"/>
</g>
<g mask="url(#mask-1)">
<use xlink:href="#source-8826"/>
</g>
</svg>

<svg width="16" height="16" version="1.0" viewBox="0 0 16 16" xmlns="http://www.w3.org/2000/svg">
 <path d="m8 1a1 1 0 0 0-1 1 1 1 0 0 0 0.0097656 0.13672c-1.7312 0.44034-3.0098 1.9912-3.0098 3.8633v3.8809l1-1v-2.8809c0-1.662 1.338-3 3-3 0.80043 0 1.5217 0.31485 2.0586 0.82227l0.70117-0.70117c-0.48965-0.46504-1.0937-0.81232-1.7715-0.98438a1 1 0 0 0 0.011719-0.13672 1 1 0 0 0-1-1zm4 5.123-1 1v1.877a3 3 0 0 0 0.76953 2h-4.6464l-1 1h7.877v-1a2 2 0 0 1-2-2v-2.877zm-5 6.877a1 1 0 0 0 1 1 1 1 0 0 0 1-1h-2z" fill="#363636" opacity=".35"/>
 <rect transform="rotate(-45)" x="-8" y="10.814" width="16" height="1" ry="0" fill="#363636" opacity=".35"/>
</svg>
